authing.svg

<?xml version="1.0" encoding="UTF-8"?>
<svg viewBox="0 0 24 24" version="1.1" xmlns="http://www.w3.org/2000/svg" xmlns:xlink="http://www.w3.org/1999/xlink">
    <title>Authing</title>
    <path d="M10.5013554,0 L20.9900191,6.30434387 L20.9970427,6.58467657 L21,6.86591994 C21,14.3027654 16.7430967,20.7586437 10.5,24 C4.25690329,20.7586437 0,14.3027654 0,6.86591994 C0,6.67795891 0.00455916352,6.49109068 0.00998087147,6.30434387 L10.5013554,0 Z M10.5013554,2.42710137 L2.131717,7.45639439 C2.12740427,7.60525758 2.12370766,7.75436361 2.12370766,7.90431959 C2.12370766,13.8369912 5.51966837,18.9872204 10.5,21.5728987 C15.4803317,18.9872204 18.8764155,13.8369912 18.8764155,7.90431959 C18.8764155,7.75436361 18.8725957,7.60525758 18.8684063,7.45639439 L10.5013554,2.42710137 Z M8.69680155,5.38570259 L10.5146756,8.80263488 L8.37359382,12.6496433 L10.5155381,15.9761163 L12.6576057,12.6496433 L10.5165239,8.80263488 L12.3734589,5.40452297 L17.0997095,8.40886381 L17.0997095,8.76632973 C17.0997095,13.3799958 14.4565037,17.3976019 10.5692623,19.4235255 C6.68214417,17.414601 4.03893832,13.3969948 4.03893832,8.76632973 L4.03893832,8.40886381 L8.69680155,5.38570259 Z" fill="#396AFF"/>
</svg>

<svg viewBox="0 0 24 24" xmlns="http://www.w3.org/2000/svg"><path d="M10.501 0 20.99 6.304l.007.28.003.282C21 14.303 16.743 20.759 10.5 24 4.257 20.759 0 14.303 0 6.866c0-.188.005-.375.01-.562L10.501 0Zm0 2.427-8.37 5.03c-.004.148-.007.297-.007.447 0 5.933 3.396 11.083 8.376 13.669 4.98-2.586 8.376-7.736 8.376-13.669 0-.15-.003-.299-.008-.448l-8.367-5.029ZM8.697 5.386l1.818 3.417-2.141 3.847 2.142 3.326 2.142-3.326-2.141-3.847 1.856-3.398L17.1 8.409v.357c0 4.614-2.643 8.632-6.53 10.658-3.888-2.01-6.531-6.027-6.531-10.658V8.41l4.658-3.023Z" fill="#396AFF"/></svg>
